X: 1
T: Steamboat Quickstep
C: Jig
S: Traditional
N: Adapted to abc by Robert Bley-Vroman, Contradancers of Hawaii, 28 December 1996.
N: http://www.lll.hawaii.edu/contra/
N: mailto:vroman@hawaii.edu
M: 6/8
L: 1/8
K: A
|: a2e c2A | Ace a3 | agf edc | Bed cBA |
   a2e c2A | Ace a3 | agf edc | edB A3 :|
|: c2e efe | efe c2 A | d2f fgf | fga e3 |
   c2e efe | efe c2 A | agf edc | edB A3 :|
